X:11
T:Polka
O:France
M:2/4
L:1/8
Q:1/4=120
K:C
ee AA/2B/2|cB/2A/2 e2|e/2f/2e/2d/2 ee|e/2f/2e/2d/2 e2|ee
AA/2B/2|cB/2A/2 e2|e/2f/2e/2d/2 cc/2B/2|Ac/2B/2 A2:|
|:ee a2|g/2a/2g/2d/2 e2|e/2f/2e/2d/2 ee|e/2f/2e/2d/2 e2|ee
a2|g/2a/2g/2d/2 e2|e/2f/2e/2d/2 c/2d/2c/2B/2|Ac/2B/2 A2:||
